X:7571
T:Tink,The. JMT091
O:england
M:4/4
L:1/8
Q:200
S:J.Moore,Tyneside,1841.(65b)
R:Reel
A:Northumbria
K:G
G2g2E2e2|dedcB2G2|BcdB cdec|d2f2g4:|
|:BABcd2d2|eccAF2D2|BABcd2d2|egfag4:|]


